!!!!SEGMENT: pl-cz--iii-623--001-009_raszek-waclaw--nieszpory-salve-regina.krn
!!!cenid: 18xx:1012
!!!COM: Raszek, Wacław
!!!COM-rismid: pe30020314
!!!CDT: >1848->1848
!!!CNT:
!!!OPR: Nieszpory
!!!OTL: Salve Regina
!!!OMV: 009
!!!PDT:
!!!AGN: Sacred
!!!SMS-siglum: PL-CZ
!!!SMS-shelfmark: III-623
!!!SMS-shelfwork: 001-009 M
!!!SMS-variant:
!!!SMS-altvar:
!!!NIFC-rismid: 300001052
!!!URL-scan: http://repozytorium.nifc.pl/skany/pl-cz-nut--iii-623
!!!ONB-nifc: UWAGA: części Nieszporów: Dixit Dominus, Confitebor, Beatus vir, Laudate pueri, In exitu, Laudate Dominum, Iste confessor, Magnificat, Salve Regina. Uwaga: w Canto 1,2 i Tenorze zaburzona kolejność części
!!!key: B-
**kern	**kern	**text	**text	**kern	**text	**text	**kern	**text	**text	**kern	**text	**text	**kern	**kern
*part7	*part6	*part6	*part6	*part5	*part5	*part5	*part4	*part4	*part4	*part3	*part3	*part3	*part2	*part1
*staff7	*staff6	*staff6	*staff6	*staff5	*staff5	*staff5	*staff4	*staff4	*staff4	*staff3	*staff3	*staff3	*staff2	*staff1
*IGcont	*IGcoro	*	*	*IGcoro	*	*	*IGcoro	*	*	*IGcoro	*	*	*	*
*ICklav	*ICvox	*	*	*ICvox	*	*	*ICvox	*	*	*ICvox	*	*	*ICww	*ICww
*Iorgan	*Ibass	*	*	*Itenor	*	*	*Isoprn	*	*	*Isoprn	*	*	*Iclars	*Iclars
*I"Baſso.	*I"Baſso.	*	*	*I"Tenore	*	*	*I"Canto Secondo	*	*	*I"Canto Primo	*	*	*I"Clarinetto Secondo. in B.	*I"Clarinetto Primo
*I'org	*I'B.	*	*	*I'T	*	*	*I'S 2	*	*	*I'S 1	*	*	*I'Cl 2 in Bb	*I'Cl 1 in Bb
*clefF4	*clefF4	*	*	*clefC4	*	*	*clefC1	*	*	*clefC1	*	*	*clefG2	*clefG2
*	*	*	*	*	*	*	*	*	*	*	*	*	*ITrd1c2	*ITrd1c2
*k[b-e-]	*k[b-e-]	*	*	*k[b-e-]	*	*	*k[e-b-]	*	*	*k[e-b-]	*	*	*k[b-e-]	*k[b-e-]
*B-:	*B-:	*	*	*B-:	*	*	*B-:	*	*	*B-:	*	*	*B-:	*B-:
*M2/2	*M2/2	*	*	*M2/2	*	*	*M2/2	*	*	*M2/2	*	*	*M2/2	*M2/2
*met(c|)	*met(c|)	*	*	*met(c|)	*	*	*met(c|)	*	*	*met(c|)	*	*	*met(c|)	*met(c|)
*2\right	*2\right	*	*	*2\right	*	*	*2\right	*	*	*2\right	*	*	*2\right	*2\right
=1	=1	=1	=1	=1	=1	=1	=1	=1	=1	=1	=1	=1	=1	=1
!	!LO:TX:a:t=P:problem:wszystkie y z pojedynczą kropką	!	!	!LO:TX:a:t=P:problem:wszystkie y z pojedynczą kropką	!	!	!LO:TX:a:t=P:problem:wszystkie y z pojedynczą kropką	!	!	!LO:TX:a:t=P:problem:wszystkie y z pojedynczą kropką	!	!	!LO:TX:a:t=in B.	!LO:TX:a:t=in B.
!LO:TX:a:t=Largo.\nSalve Regina\nantyfona.:rj	!LO:TX:a:t=Largetto:rj	!	!	!LO:TX:a:t=Largetto.:rj	!	!	!LO:TX:a:t=Largetto.:rj	!	!	!LO:TX:a:t=Largetto:rj	!	!	!LO:TX:a:t=Antyfona Salve Regina\nLargo.:rj	!LO:TX:a:t=Largetto. Salve Regina\nAntifona.:rj
!	!LO:TX:a:t=Antyfona Salve Regina:	!	!	!LO:TX:a:t=Antyfona Salve Regina	!	!	!LO:TX:a:t=Antyfona Salve Regina	!	!	!LO:TX:a:t=Antyfona Salve Regina	!	!	!	!
2BB-/	2BB-/	Wi-	Zwróc	2d\	Wi-	Zwróc	2f/	Wi-	Zwróc	2b-\	Wi-	Zwróc	2dd\	2ff\
4F\	4F\	-tay	więc	4c\	-tay	więc	4f/	-tay	więc	4a\	-tay	więc	4.a\	8ff\L
.	.	.	.	.	.	.	.	.	.	.	.	.	.	8ff\
4F\	4F\	Kro-	li-	4c\	Kro-	li-	4f/	Kro-	li-	4a\	Kro-	li-	.	8gg\
.	.	.	.	.	.	.	.	.	.	.	.	.	8ee-\	8aa\J
=2	=2	=2	=2	=2	=2	=2	=2	=2	=2	=2	=2	=2	=2	=2
4B-\	2B-\	-lo-	-to-	2d\	-lo-	-to-	2f/	-lo-	-to-	2b-\	-lo-	-to-	8dd\L	4.bb-\
.	.	.	.	.	.	.	.	.	.	.	.	.	8f\	.
4BB-/	.	.	.	.	.	.	.	.	.	.	.	.	8b-\	.
.	.	.	.	.	.	.	.	.	.	.	.	.	8dd\J	8ff\
4F\	2F\	-wa	-sne	2A\	-wa	-sne	2f/	-wa	-sne	2cc\	-wo	-sne	4ff\	8ccc\L
.	.	.	.	.	.	.	.	.	.	.	.	.	.	8aa\
4FF/	.	.	.	.	.	.	.	.	.	.	.	.	4r	8ff\
.	.	.	.	.	.	.	.	.	.	.	.	.	.	8ee-\J
=3	=3	=3	=3	=3	=3	=3	=3	=3	=3	=3	=3	=3	=3	=3
!LO:LB:g=original	!	!	!	!	!	!	!	!	!	!	!	!	!LO:LB:g=original	!LO:LB:g=original
4BB-/	4BB-/	i	ku	4B-\	i	ku	4f/	i	Ku	4dd\	i	Ku	8f/L	4.dd\
.	.	.	.	.	.	.	.	.	.	.	.	.	8d/	.
4D/	4B-\	Mat-	nam	4B-\	Ma-	nam	4f/	Ma-	nam	4dd\	Ma-	nam	8B-/	.
.	.	.	.	.	.	.	.	.	.	.	.	.	8f/J	8b-\
4F/	4B-\	-ko	O-	4B-\	-tko	O-	4f/	-tko	o-	4dd\	-tko	o-	4d/	8b-\L
.	.	.	.	.	.	.	.	.	.	.	.	.	.	8dd\
4B-/	4BB-/	li-	-czy	4d\	li-	-czy	4f/	li-	-czy	4ff\	li-	-czy	8b-\L	8dd\
.	.	.	.	.	.	.	.	.	.	.	.	.	8dd\J	8ff\J
=4	=4	=4	=4	=4	=4	=4	=4	=4	=4	=4	=4	=4	=4	=4
!	!LO:LB:g=original	!	!	!	!	!	!	!	!	!	!	!	!	!
4F\	2F\	-to-	two-	(4d\	-toś-	two-	2a\	-toś-	two-	(4ff\	-toś-	two-	8dd\L	8ff\L
.	.	.	.	.	.	.	.	.	.	.	.	.	8b-\	8dd\
4r	.	.	.	4c\)	.	.	.	.	.	4ee-\)	.	.	8cc\	8ee-\
.	.	.	.	.	.	.	.	.	.	.	.	.	8cc\J	8ee-\J
!LO:TX:a:t=P:problem:mixed beam	!	!	!	!	!	!	!	!	!	!	!	!	!	!
8F\L	2F\	-śći	-ie	2c\	-ci	-ie	2a\	-ći	-ie	2ee-\	-ci	-ie	4cc\	4ee-\
8FF/	.	.	.	.	.	.	.	.	.	.	.	.	.	.
8AA/	.	.	.	.	.	.	.	.	.	.	.	.	4r	4r
8C/J	.	.	.	.	.	.	.	.	.	.	.	.	.	.
=5	=5	=5	=5	=5	=5	=5	=5	=5	=5	=5	=5	=5	=5	=5
!	!	!	!	!LO:LB:g=original	!	!	!LO:LB:g=original	!	!	!LO:LB:g=original	!	!	!	!
2.F\	2F\	Na-	O-	2c\	Na-	O-	2a\	Na-	O-	2cc\	Na-	O-	4.cc\	4.ee-\
.	.	.	.	.	.	.	.	.	.	.	.	.	8a\	8cc\
.	4F\	-dzie-	-bro-	4B-\	-dzie-	-bro-	4b-\	-dzie-	-bro-	4dd\	-dzie-	-bro-	4b-\	8dd\L
.	.	.	.	.	.	.	.	.	.	.	.	.	.	8b-\
4E-\	4E-\	-jo	-ni-	4A\	-jo	-ni-	4cc\	-jo	-ni-	4ee-\	-io	-ni-	4cc\	8ee-\
.	.	.	.	.	.	.	.	.	.	.	.	.	.	8cc\J
=6	=6	=6	=6	=6	=6	=6	=6	=6	=6	=6	=6	=6	=6	=6
!	!	!	!	!	!	!	!	!	!	!	!	!	!LO:TX:a:t=P:problem:mixed beam	!
4D\	2D/	Na-	-ciel-	2B-\	Na-	-ciel-	2dd\	Na-	-ciel-	2ff\	na-	-ciel-	8dd\L	4.ff\
.	.	.	.	.	.	.	.	.	.	.	.	.	8f/	.
4F\	.	.	.	.	.	.	.	.	.	.	.	.	8d/	.
.	.	.	.	.	.	.	.	.	.	.	.	.	8f/J	8bb-\
4BB-/	2BB-/	-sza	-ko	2B-\	-sza	-ko	2b-\	-sza	-ko	2dd\	-sza	-ko	8B-/L	4.dd\
.	.	.	.	.	.	.	.	.	.	.	.	.	8f/	.
4B-\	.	.	.	.	.	.	.	.	.	.	.	.	8d/	.
.	.	.	.	.	.	.	.	.	.	.	.	.	8f/J	8ff\
=7	=7	=7	=7	=7	=7	=7	=7	=7	=7	=7	=7	=7	=7	=7
!LO:LB:g=original	!	!	!	!	!	!	!	!	!	!	!	!	!LO:LB:g=original	!LO:LB:g=original
4GG/	4G\	po-	Sług	4B-\	po-	Sług	4g\	po-	Sług	4dd\	po-	sług	4d/	8b-\L
.	.	.	.	.	.	.	.	.	.	.	.	.	.	8dd\
4G\	4G\	-cie-	two-	4B-\	-cie-	two-	4g\	-cie-	two-	4dd\	-cie-	two-	8b-/L	8dd\
.	.	.	.	.	.	.	.	.	.	.	.	.	8b-/J	8dd\J
4E-\	4E-\	-cho	-ich	4c\	-cho	-ich	4g\	-cho	-ich	4cc\	-cho	-ich	4g/	(8dd\L
.	.	.	.	.	.	.	.	.	.	.	.	.	.	8cc\
4En\	4En\	i	ie-	4c\	i	ie-	4g\	i	ie-	4b-\	i	ie-	4cc\	8gg\)
.	.	.	.	.	.	.	.	.	.	.	.	.	.	8bb-\J
=8	=8	=8	=8	=8	=8	=8	=8	=8	=8	=8	=8	=8	=8	=8
!	!LO:LB:g=original	!	!	!	!	!	!	!	!	!	!	!	!	!
4F\	2F\	zdro-	-dy-	(>4c\	zdro-	-dy-	(4f/	zdro-	-dy-	(4a\	zdro-	-dy-	4cc\	(8aa\L
.	.	.	.	.	.	.	.	.	.	.	.	.	.	8ff\
4r	.	.	.	4B-\)	.	.	4en/)	.	.	4b-\)	.	.	4b-\	8eeX\
.	.	.	.	.	.	.	.	.	.	.	.	.	.	8gg\J)
8F\L	4FF/	-wie	-na	2A\	-wie	-na	2f/	-wie	-na	2cc\	-wie	-na	8a\L	8ff\L
8E-\	.	.	.	.	.	.	.	.	.	.	.	.	8cc\	8ee-\
8C\	4r	.	.	.	.	.	.	.	.	.	.	.	8a\	8cc\
8AA\J	.	.	.	.	.	.	.	.	.	.	.	.	8cc\J	8ee-\J
=9	=9	=9	=9	=9	=9	=9	=9	=9	=9	=9	=9	=9	=9	=9
!	!	!	!	!	!	!	!LO:LB:g=original	!	!	!LO:LB:g=original	!	!	!	!
4BB-/	2BB-/	O-	Byś-	2d\	O-	Byś-	2f/	O-	Byś-	2b-\	O-	Byś	8b-/L	4.dd\
.	.	.	.	.	.	.	.	.	.	.	.	.	8f/	.
4D/	.	.	.	.	.	.	.	.	.	.	.	.	8d/	.
.	.	.	.	.	.	.	.	.	.	.	.	.	8f/J	8b-\
4F\	4F\	-to	-my	4c\	-to	-my	4f/	-to	-my	4a\	-to	my	4e-/	8a\L
.	.	.	.	.	.	.	.	.	.	.	.	.	.	8cc\J
4F\	4F\	wy-	skoń-	4c\	wy-	skoń-	4f/	wy-	skoń-	4a\	wy-	skoń-	8c/L	4ff\
.	.	.	.	.	.	.	.	.	.	.	.	.	8e-/J	.
=10	=10	=10	=10	=10	=10	=10	=10	=10	=10	=10	=10	=10	=10	=10
!	!	!	!	!LO:LB:g=original	!	!	!	!	!	!	!	!	!	!
4B-\	2B-\	-gnań-	-czy-	2d\	-gnań-	-czy-	2f/	-gnań-	-czy-	2b-\	-gnań-	-czy-	4d/	8b-\L
.	.	.	.	.	.	.	.	.	.	.	.	.	.	8dd\J
4BB-/	.	.	.	.	.	.	.	.	.	.	.	.	8f/L	4ff\
.	.	.	.	.	.	.	.	.	.	.	.	.	8d/J	.
!	!	!	!	!	!	!	!	!	!	!	!	!	!LO:LB:g=original	!LO:LB:g=original
4FF/	2F\	-cy	-wszy	2A\	-cy	-wszy	2f/	-cy	-wszy	2cc\	-cy	-wszy	4c/	8cc\L
.	.	.	.	.	.	.	.	.	.	.	.	.	.	8ee-\J
4F\	.	.	.	.	.	.	.	.	.	.	.	.	8a\L	4ff\
.	.	.	.	.	.	.	.	.	.	.	.	.	8cc\J	.
=11	=11	=11	=11	=11	=11	=11	=11	=11	=11	=11	=11	=11	=11	=11
!LO:LB:g=original	!	!	!	!	!	!	!	!	!	!	!	!	!	!
4BB-/	4BB-/	i	ziem-	4B-\	i	ziem-	4f/	i	ziem-	4dd\	i	ziem-	4f/	8dd\L
.	.	.	.	.	.	.	.	.	.	.	.	.	.	8ff\J
4D/	4B-\	E-	-skie	4B-\	E-	-skie	4f/	E-	-skie	4dd\	E-	-skie	8dd\L	4bb-\
.	.	.	.	.	.	.	.	.	.	.	.	.	8ff\J	.
4F/	4B-\	-wy	tru-	4B-\	-wy	tru-	4f/	-wy	tru-	4dd\	-wy	tru-	4f/	8b-\L
.	.	.	.	.	.	.	.	.	.	.	.	.	.	8dd\J
4B-/	4BB-/	Sy-	-dy	4d\	Sy-	-dy	4f/	Sy-	-dy	4ff\	Sy-	-dy	8b-\L	4ff\
.	.	.	.	.	.	.	.	.	.	.	.	.	8dd\J	.
=12	=12	=12	=12	=12	=12	=12	=12	=12	=12	=12	=12	=12	=12	=12
!	!LO:LB:g=original	!	!	!	!	!	!	!	!	!	!	!	!	!
4F\	2F\	-no-	zno-	(4d\	-no-	zno-	2a\	-no-	zno-	(4ff\	-no-	zno-	(8dd\L	(8ff\L
.	.	.	.	.	.	.	.	.	.	.	.	.	8b-\)	8dd\)
4r	.	.	.	4c\)	.	.	.	.	.	4ee-\)	.	.	8cc\	8ee-'\
.	.	.	.	.	.	.	.	.	.	.	.	.	8cc\J	8ee-'\J
!LO:TX:a:t=P:problem:mixed beam	!	!	!	!	!	!	!	!	!	!	!	!	!	!
8F\L	2F\	-wie	-ie	2c\	-wie	-ie	2a\	-wie	-ie	2ee-\	-wie	-ie	4cc\	4ee-\
8FF/	.	.	.	.	.	.	.	.	.	.	.	.	.	.
8AA/	.	.	.	.	.	.	.	.	.	.	.	.	4r	4r
8C/J	.	.	.	.	.	.	.	.	.	.	.	.	.	.
=13	=13	=13	=13	=13	=13	=13	=13	=13	=13	=13	=13	=13	=13	=13
!	!	!	!	!	!	!	!LO:LB:g=original	!	!	!LO:LB:g=original	!	!	!	!
4E-\	2E-\	z pła-	O-	2c\	z pła-	O-	2a\	z pła-	O-	2cc\	z pła-	O-	8r	8r
.	.	.	.	.	.	.	.	.	.	.	.	.	8f/L	8ff\L
4e-\	.	.	.	.	.	.	.	.	.	.	.	.	8f/	8ff\
.	.	.	.	.	.	.	.	.	.	.	.	.	8f/J	8ff\J
4d\	4D\	-czem	-glą-	4B-\	-czem	-glą-	4b-\	-czem	-glą-	4dd\	-czem	-glą-	8B-/L	8gg\L
.	.	.	.	.	.	.	.	.	.	.	.	.	8f/	8ff\J
4c\	4C\	do	-dac	4A\	do	-dac	4cc\	do	-dac	4ee-\	do	-dac	8c/	4r
.	.	.	.	.	.	.	.	.	.	.	.	.	8f/J	.
=14	=14	=14	=14	=14	=14	=14	=14	=14	=14	=14	=14	=14	=14	=14
!	!	!	!	!LO:LB:g=original	!	!	!	!	!	!	!	!	!LO:LB:g=original	!LO:LB:g=original
4B-\	2BB-/	cie-	mo-	2B-\	cie-	mo-	2dd\	cie-	mo-	2ff\	Cie-	mo-	8B-/L	8r
.	.	.	.	.	.	.	.	.	.	.	.	.	8f/	8ff\L
4BB-/	.	.	.	.	.	.	.	.	.	.	.	.	8f/	8ff\
.	.	.	.	.	.	.	.	.	.	.	.	.	8f/J	8ff\J
!	!	!	!	!	!	!	!	!	!	!	!	!	!LO:TX:a:t=P:problem:mixed beam	!
4G\	2G\	-bie	-gli	2B-\	-bie	-gli	2b-\	-bie	-gli	2dd\	-bie	-gli	8B-/L	(8ee-\L
.	.	.	.	.	.	.	.	.	.	.	.	.	8b-\	8dd\)
4GG/	.	.	.	.	.	.	.	.	.	.	.	.	8b-\	8dd'\
.	.	.	.	.	.	.	.	.	.	.	.	.	8b-\J	8dd'\J
=15	=15	=15	=15	=15	=15	=15	=15	=15	=15	=15	=15	=15	=15	=15
!LO:LB:g=original	!LO:LB:g=original	!	!	!	!	!	!	!	!	!	!	!	!	!
4E-\	4E-\	wzno-	wNie-	4e-\	wzno-	wNie-	4g/	wzno-	wNie-	4gg\	wzno-	w Nie-	8b-\L	8gg\L
.	.	.	.	.	.	.	.	.	.	.	.	.	8g\J	8ee-\
4E-\	4E-\	-szą	-bie	4c\	-szą	-bie	4g/	-szą	-bie	4ee-\	-szą	-bie	8e-/L	8cc\
.	.	.	.	.	.	.	.	.	.	.	.	.	8g/J	8ee-\J
4F\	4F\	głos	twe-	4B-\	głos	twe-	4f/	głos	twe-	4dd\	głos	twe-	8b-\L	8dd\L
.	.	.	.	.	.	.	.	.	.	.	.	.	8dd\	8ff\
4FF/	4FF/	znis-	-go	4A\	znis-	-go	4f/	z nis-	-go	4cc\	zni-	-go	8cc\	8ee-\
.	.	.	.	.	.	.	.	.	.	.	.	.	8a\J	8cc\J
=16	=16	=16	=16	=16	=16	=16	=16	=16	=16	=16	=16	=16	=16	=16
2FF/	2FF/	-ko-	Sy-	2A\	-ko-	Sy-	2e-/	-ko-	Sy-	2cc\	-sko-	Sy-	(2a\	(2ee-\
4BB-/	4BB-/	-ści	-na	4B-\	-ści	-na	4d/	-ści	-na	4b-\	-śći	-na.	4b-\)	4dd\)
4r	4r	.	.	4r	.	.	4r	.	.	4r	.	.	4r	4r
==	==	==	==	==	==	==	==	==	==	==	==	==	==	==
*-	*-	*-	*-	*-	*-	*-	*-	*-	*-	*-	*-	*-	*-	*-
!!!system-decoration: [(s1,s2)][(s3,s4,s5,s6)]s7
!!!ENC: Berenika Jozajtis
!!!END: 2020-09-30
!!!ENC: Krzysztof Stępień
!!!END: 2021-11-24
!!!RDF**kern: > = above
!!!RDF**kern: < = below
